X: 34
T: THE PLAINS OF WATERLOO
B: "Old English Country Dances", Frank Kidson ed., William Reeves pub., London 1890
Z: 2010-9-26 John Chambers <jc:trillian.mit.edu>
M: 6/8
L: 1/8
K: G
D |\
B,/C/DD D2D | B,/C/DD D2F | GEE E2D | GAB A2G |
Bcd efg | dBd G2A | Bed B2A | GEE E2 :|
|: d |\
Bdd dBG | Bdd d2c | Bde dBG | cee e2d/c/ |
Bcd efg | dBd G2A | Bed B2A | GEE E2 :|


%%sep 1 1 500

%%sep 1 1 500

